X: 10341
T: CINDERELLA WALTZ
T: the Green Hills of Tyrol
T: a Scottish Soldier
T: la Tua Danza S\`i Leggiera
C: Gioachino Rossini 1829
N: It is believed that Rossini's song was an adaptation of an Alpine folk tune.
%R: waltz
B: Elias Howe "The Musician's Companion" Part 1 1842 p.34 #1
S: http://imslp.org/wiki/The_Musician's_Companion_(Howe,_Elias)
Z: 2015 John Chambers <jc:trillian.mit.edu>
N: The 2nd strain has 22 bars.
M: 3/4
L: 1/8
K: G
% - - - - - - - - - - - - - - - - - - - - - - - - -
DGA |\
B2BGBc | d2deBe | dcAFAe | dBGDGA |\
B2BGBc | d2deBe | dcADFA | G2z2 :: G2 |\
g4 fe | ed dz e2 | dc cz d2 |
cB Bz G2 | g4 fe | ed dz e2 | e^c cz BA |\
d2dAfA | e2eA^cA | d2dAfA | e2eA^cA |\
de^cede | =cdBdAd | G2z DGA |
B2BGBc | d2deBe | dcAFAe | dBGDGA |\
B2BGBc | d2deBe | dcADFA | G2z2 :| FGA |\
B2BF^cF | B2BcBA | G2GDBD | G2zFGA |
B2BF^dF | B2BcBA | G2GDBD | G2z2G2 |\
g4 fe | ed dz e2 | dc cz d2 | cB Bz G2 |\
g4 fe | ed dz e2 | dc cz d2 | g2 z |]
% - - - - - - - - - - - - - - - - - - - - - - - - -
